X:1
T:Title
%%score ( 1 2 ) ( 3 4 )
L:1/8
Q:1/4=95
M:4/4
K:Bb
V:1 treble nm="Grand Piano, Soprano"
V:2 treble 
V:3 bass nm="Choir Pad, From the Cyber Hymnal™"
V:4 bass 
V:1
 [B,D]>[CE] [DF]>[_D=E] [=DF]>[_EG] [DF]2 | [Fd]>[^F_d] [GB]>[FA] [GB]>[Gc] [GB]2 | %2
w: By~Bentley~DeForest~Ackley * * * * * *||
 [FA]>[EG] [DF]>[_D=E] [=DF]>[FB] [EB]>[EG] | [=EA]>[EB] [_Ec]6 | %4
w: ||
 [B,D]>[CE] [DF]>[_D=E] [=DF]>[_EG] [DF]2 | [Fd]>[^F_d] [GB]>[FA] [GB]>[Gc] [GB]2 | %6
w: ||
 [FA]>[EG] [DF]>[EF] [FB]>[Fc] [Fd]>[Ge] | [Fd]>[Ec] [DB]6 | [B,D]>[CE] [DF]2 [Fd]4 | %9
w: |||
 [EA]>[FB] [Ec]2 [EG]4 | [=Ec]>[EB] [_EA]<[EA] [EA]>[EG] [EF]<[EG] | [DF]>[CE] [B,D]6 | %12
w: |||
 [B,D]>[CE] [DF]>[Fd] [Fd]>[Ec] [DB]2 | F>F [EG]>[Ge] [Ge]>[Gd] [Gc]2 | %14
w: ||
 [Gc]>[GB] [FA]<[FA] [FA]>[FG] F<[Fe] | z2 B6- | B6 z2 |] %17
w: |||
V:2
 x8 | x8 | x8 | x8 | x8 | x8 | x8 | x8 | x8 | x8 | x8 | x8 | x8 | x8 | x8 | [Fd]>[Ec] D<D E>E D2- | %16
 D6 z2 |] %17
V:3
 [B,,F,]>[B,,F,] [B,,B,]>[B,,B,] [B,,B,]>[B,,B,] [B,,B,]2 | %1
 [B,,B,]>[D,B,] [E,B,]>[E,B,] [E,E]>[E,E] [E,E]2 | %2
 [E,E]>[E,B,] [B,,B,]>[B,,B,] [B,,B,]>[D,B,] [C,G,]>[B,C] | [A,C]>[G,C] [F,A,]6 | %4
 [B,,F,]>[B,,F,] [B,,B,]>[B,,B,] [B,,B,]>[B,,B,] [B,,B,]2 | %5
 [B,,B,]>[D,B,] [E,B,]>[E,B,] [E,E]>[E,E] [E,E]2 | %6
 [E,E]>[E,B,] [F,B,]>[E,A,] [D,B,]>[F,A,] B,>[E,B,] | [F,B,]>[F,A,] [B,,F,]6 | %8
 [B,,F,]>[B,,F,] [B,,B,]<[B,,B,] [B,,B,]<[B,,B,] [B,,B,]<[B,,B,] | %9
 [C,F,]>[D,B,] [E,G,]<[E,G,] [E,C]>[E,C] [E,C]<[E,C] | %10
 [C,C]>[C,C] [F,C]<[F,C] [F,C]>[F,B,] [F,A,]<[F,A,] | [F,B,]>F, F,-<[B,,F,-] [D,F,]2 B,,2 | %12
 [B,,F,]>[B,,F,] [B,,B,]>[B,,B,] [F,A,]>[^F,A,] [G,B,]2 | %13
 [D,B,]>[D,B,] [E,B,]>[E,B,] [C,C]>[D,=B,] [E,C]2 | %14
 [=E,C]>[E,C] [F,C]<[F,C] [F,C]>[F,B,] [F,A,]<[F,A,] | %15
 [F,B,]>F, [B,,F,]<[B,,F,] [B,,G,]>[B,,G,] [B,,F,]2- | [B,,F,]6 z2 |] %17
V:4
 x8 | x8 | x8 | x8 | x8 | x8 | x8 | x8 | x8 | x8 | x8 | z2 .B,,2 z z/ F,/- F,3/2 z/ | x8 | x8 | %14
 x8 | x8 | x8 |] %17

